X: 20
T:It's a Long Way to Tipperary
% Nottingham Music Database
S:Kevin Briggs, via EF
M:4/4
L:1/4
K:D
FG |"D"A2 A2-|"D"AA Bc|"D"d2 f2-|"D7"f2 fe|"G"d2 B2-|"G"B2 d2|"D"A4-|
"A7"AG FG|"D"A2 A2-|"D"AA Bc|"D"d2 f2-|"D"f2 cd|"E7"e2 B2|"E7"c2 d2|"A7"e4-|
"A7"e2 FG|"D"A2 A2-|"D"AA Bc|"D"d2 f2-|"D"f3f|"G"g2 B2|"G"d2 e2|"F#7"f4-|
"A7"f2 de|"D"f2 f2|"D"fd ed|"G"B4|"D"A2 de|"E7"f2 d2-|"A7"d2 e2|"D"d4-|"D"d2 \
||<end>
<start>
